X:16657
T:The Duke of Atholl's Jig
R:jig
C:Ron Gonella
M:6/8
L:1/8
K:D
A |\
d2d efg | a2a fed | gfe fdA | e3-e2A | d2d efg | a2a fed | e3  cAc | d3-d3 ::
cAA Ace | fAA Adf | gag fed | e3- e3 | cAA Ace | fAA Adf | g2e cAc | d3-d3 |
cAA Ace | fAA Adf | gag fed | e3-e2A | dcd efg | a2a fed | e3  cAc | d3-d2 |:
c |\
B2B Bde | f2f fed | fed dcB | c3-c2A | B2B Bde | f2f fed | fed cAc | B3-B3 :|
dBB fBB | dBB fBB | f^ga fed | e3-e3 | dBB fBB | dBB fBB | fed cAc | B3-B3 |
dBB fBB | dBB fBB | f^ga fed | e3-e2A | dcd efg | a2a fed | e3 cAc | d3 d2 |]
